build/img/medTech.svg

<svg width="76" height="80" viewBox="0 0 76 80" fill="none" xmlns="http://www.w3.org/2000/svg">
<path d="M38.3345 10.5344L38.3729 10.3679C38.3802 10.274 38.362 10.1798 38.3203 10.0953C38.2786 10.0108 38.215 9.9391 38.136 9.88768L37.9439 9.77883C37.7903 9.68919 37.675 9.77883 37.707 9.98373L37.7454 10.1886L37.707 10.3551C37.6998 10.449 37.718 10.5432 37.7597 10.6277C37.8013 10.7122 37.865 10.7839 37.9439 10.8353L38.136 10.9442C38.2897 11.0338 38.4049 10.9442 38.3729 10.7393L38.3345 10.5344Z" fill="#A2928D"/>
<path d="M38.2383 10.5599L38.2767 10.3998C38.2845 10.3042 38.2659 10.2083 38.223 10.1225C38.1801 10.0367 38.1146 9.96435 38.0334 9.9132L37.8477 9.80435C37.6941 9.71471 37.5788 9.80434 37.6108 10.0156L37.6493 10.2205L37.6108 10.3806C37.6038 10.4754 37.622 10.5704 37.6636 10.6559C37.7052 10.7414 37.7688 10.8143 37.8477 10.8672L38.0334 10.9697C38.1935 11.0657 38.3088 10.9697 38.2767 10.7648L38.2383 10.5599Z" fill="#7E6861"/>
<path d="M38.0591 12.321H38.0015C37.8952 12.2385 37.8093 12.1326 37.7504 12.0116C37.6916 11.8906 37.6614 11.7576 37.6621 11.623L37.6941 10.4449C37.7327 10.42 37.7766 10.4046 37.8222 10.4001C37.8424 10.3913 37.8642 10.3867 37.8862 10.3867C37.9083 10.3867 37.9301 10.3913 37.9503 10.4001C38.0132 10.4401 38.0665 10.4936 38.1064 10.5567C38.1463 10.6198 38.1717 10.691 38.1808 10.7651L38.3408 11.988C38.3488 12.0338 38.3447 12.0809 38.329 12.1247C38.3132 12.1685 38.2865 12.2074 38.2512 12.2377C38.1952 12.2811 38.1291 12.3098 38.0591 12.321Z" fill="#BB9590"/>
<path d="M37.8605 12.2826C37.7544 12.2133 37.6676 12.1182 37.6082 12.0062C37.5489 11.8943 37.5189 11.7691 37.5211 11.6423L37.6364 10.5346C37.6364 10.4066 37.7452 10.3618 37.8605 10.4322C37.9231 10.4726 37.9762 10.5262 38.016 10.5892C38.0558 10.6522 38.0814 10.7232 38.091 10.7971L38.1998 12.0329C38.219 12.289 38.059 12.3979 37.8605 12.2826Z" fill="#907566"/>
<path d="M38.0654 10.5025L37.9821 10.5537L37.9309 11.0595H37.79L37.8605 10.4448L38.0654 10.3296V10.5025Z" fill="#A2928D"/>
<path d="M38.0657 10.3293L37.8608 10.4445L37.7904 11.0592L37.6367 10.9824L37.7072 10.3677L37.9056 10.2524L38.0657 10.3293Z" fill="#8F7C76"/>
<path d="M49.9687 40.9675L3.78418 67.6358L21.8533 78.0598L68.0378 51.3979L49.9687 40.9675Z" fill="url(#paint0_linear_216_1793)"/>
<path d="M29.5942 73.6037L60.7894 55.8291L56.8196 46.5833L32.5332 60.6057L29.5942 73.6037Z" fill="url(#paint1_linear_216_1793)"/>
<path d="M14.4643 50.175L11.5254 63.173L29.5945 73.6034L32.5335 60.6054L14.4643 50.175Z" fill="#171552"/>
<path d="M68.038 53.338L21.8535 79.9999V78.0598L68.038 51.3979V53.338Z" fill="#A7B0FF"/>
<path d="M3.78418 67.6357V69.5694L21.8533 79.9998V78.0597L3.78418 67.6357Z" fill="#171552"/>
<path d="M49.9687 2.97241L3.78418 29.6343L21.8533 40.0647L68.0378 13.4028L49.9687 2.97241Z" fill="url(#paint2_linear_216_1793)"/>
<path d="M48.1889 15.0677C48.1889 28.5715 38.6485 45.0335 26.8735 51.827C22.9613 54.0873 34.0704 64.6329 30.9201 64.3128C29.1657 64.1463 12.8062 54.0105 11.4167 53.1333C7.78628 50.841 5.56445 46.1989 5.56445 39.6871C5.56445 26.1832 15.1048 9.72125 26.8735 2.92772C33.0523 -0.638724 38.6229 -0.837216 42.5159 1.73677C42.74 1.89044 60.6234 11.6934 61.2893 12.6794C62.9989 15.2022 48.1889 10.7457 48.1889 15.0677Z" fill="url(#paint3_linear_216_1793)"/>
<path d="M68.038 35.5381L21.8535 62.2V40.065L68.038 13.4031V35.5381Z" fill="url(#paint4_linear_216_1793)"/>
<path d="M59.9209 46.5548C68.2963 32.2277 68.3816 16.694 60.1114 11.8594C51.8412 7.02469 38.3472 14.7198 29.9717 29.047C21.5963 43.3741 21.511 58.9078 29.7812 63.7425C38.0514 68.5771 51.5454 60.882 59.9209 46.5548Z" fill="#8F8B8C"/>
<path d="M59.9209 46.5548C68.2963 32.2277 68.3816 16.694 60.1114 11.8594C51.8412 7.02469 38.3472 14.7198 29.9717 29.047C21.5963 43.3741 21.511 58.9078 29.7812 63.7425C38.0514 68.5771 51.5454 60.882 59.9209 46.5548Z" fill="url(#paint5_linear_216_1793)"/>
<path d="M57.7652 45.2947C64.9342 33.0314 65.0067 19.7349 57.927 15.5962C50.8474 11.4576 39.2966 18.044 32.1276 30.3074C24.9586 42.5708 24.8861 55.8672 31.9657 60.0059C39.0453 64.1445 50.5961 57.5581 57.7652 45.2947Z" fill="url(#paint6_linear_216_1793)"/>
<path d="M56.8588 44.7646C63.5191 33.3713 63.5852 21.0174 57.0062 17.1714C50.4273 13.3255 39.6947 19.4438 33.0343 30.8371C26.3739 42.2304 26.3079 54.5843 32.8868 58.4303C39.4658 62.2762 50.1984 56.1579 56.8588 44.7646Z" fill="url(#paint7_linear_216_1793)"/>
<path d="M44.9421 14.2352C56.5827 7.51854 61.5129 12.8522 63.9525 15.7591C60.4372 9.8428 53.2467 8.54941 44.9421 13.3452C36.6375 18.141 29.5046 27.6622 25.9766 37.5996C28.4033 31.9202 33.3143 20.9583 44.9421 14.2352Z" fill="white"/>
<path d="M54.8021 43.5627C60.315 34.1323 60.3713 23.908 54.9281 20.7259C49.4848 17.5438 40.6031 22.6091 35.0903 32.0394C29.5774 41.4697 29.521 51.6941 34.9643 54.8761C40.4076 58.0582 49.2893 52.993 54.8021 43.5627Z" fill="url(#paint8_linear_216_1793)"/>
<path d="M3.78418 29.6345V51.7759L21.8533 62.1999V40.0649L3.78418 29.6345Z" fill="#2137FF"/>
<path d="M7.86926 27.2781L25.9768 37.5996L21.8533 40.0648L3.78418 29.6344L7.86926 27.2781Z" fill="#A7AFFF"/>
<path d="M23.6332 55.8225V39.0852L19.228 36.4408C18.5553 36.1328 17.8334 35.9464 17.0958 35.8901C16.5008 35.9838 15.9126 36.1164 15.335 36.2871L16.3466 36.8698C16.7534 36.7368 17.1847 36.6966 17.6091 36.752C18.0334 36.8074 18.44 36.957 18.799 37.1899C19.9451 37.9903 22.6407 39.6102 22.6407 39.6102V56.6229L23.6332 55.8225Z" fill="url(#paint9_linear_216_1793)"/>
<path d="M14.618 57.9293H14.2979V47.7998L21.8533 51.9169L30.8175 46.8138L32.9112 41.1792L33.0137 41.8131L31.08 47.0315L21.8597 52.2819L14.618 48.3441V57.9293Z" fill="url(#paint10_linear_216_1793)"/>
<path d="M54.1243 30.3515C54.1243 37.1002 49.3605 45.3216 43.4826 48.7151C38.0977 51.8206 33.6477 49.8036 32.9369 44.2331C32.8712 43.6999 32.8392 43.1631 32.8409 42.6259C32.8409 35.8772 37.6047 27.6622 43.4826 24.2687C44.2129 23.8363 44.9879 23.4842 45.7941 23.2186C50.5578 21.6755 54.1243 24.5184 54.1243 30.3515Z" fill="url(#paint11_linear_216_1793)"/>
<path d="M45.8645 24.6208C45.8645 31.472 41.0239 39.8214 35.0499 43.2726C34.378 43.665 33.6705 43.993 32.9369 44.2523C32.8712 43.7191 32.8392 43.1823 32.8409 42.6451C32.8409 35.8964 37.6047 27.6814 43.4826 24.2879C44.2129 23.8555 44.9879 23.5034 45.7941 23.2378C45.8409 23.6973 45.8644 24.1589 45.8645 24.6208Z" fill="#171552"/>
<path d="M24.203 57.737C23.7454 57.7342 23.2991 57.5936 22.9225 57.3336L22.7944 57.1608C22.6849 57.0189 22.6138 56.8513 22.5878 56.6739C22.5619 56.4966 22.5821 56.3156 22.6464 56.1483C22.7108 55.9811 22.8171 55.8332 22.9551 55.7189C23.0932 55.6047 23.2584 55.5279 23.4347 55.496L23.9661 55.8674C24.0355 55.9098 24.1153 55.9323 24.1966 55.9323C24.278 55.9323 24.3578 55.9098 24.4272 55.8674C24.4999 55.8318 24.5609 55.7761 24.6029 55.7068C24.6449 55.6376 24.6661 55.5578 24.6641 55.4768V30.6398C24.6667 30.319 24.5889 30.0028 24.438 29.7198C24.287 29.4369 24.0675 29.1962 23.7997 29.0198C23.5125 28.8376 23.1793 28.7408 22.8392 28.7408C22.4991 28.7408 22.166 28.8376 21.8788 29.0198L8.43258 37.1195C7.62385 37.623 6.95632 38.3236 6.49264 39.1558C6.02896 39.988 5.78434 40.9243 5.78176 41.8769V47.1081H3.96973V41.8769C3.97592 40.6171 4.30166 39.3794 4.91644 38.2797C5.53123 37.1801 6.41497 36.2544 7.48495 35.5892L20.9311 27.4959C21.4914 27.1475 22.1379 26.9629 22.7976 26.9629C23.4573 26.9629 24.1038 27.1475 24.6641 27.4959C25.2056 27.8338 25.6502 28.3064 25.9543 28.8675C26.2585 29.4287 26.4118 30.0592 26.3993 30.6974V55.4448C26.4071 55.851 26.3084 56.2521 26.1129 56.6083C25.9175 56.9644 25.632 57.2631 25.2851 57.4745C24.9518 57.6504 24.5799 57.7406 24.203 57.737Z" fill="#ECECEC"/>
<path d="M26.105 29.1096C26.2495 29.5213 26.3252 29.9539 26.3291 30.3902V55.1312C26.3356 55.5379 26.2357 55.9392 26.0391 56.2953C25.8425 56.6514 25.5562 56.9498 25.2085 57.161C24.8698 57.3568 24.4857 57.4606 24.0944 57.4619C23.6359 57.4644 23.1881 57.3234 22.8138 57.0585L22.6794 56.8856C22.65 56.8453 22.6243 56.8024 22.6025 56.7576C22.6337 56.9022 22.6971 57.0379 22.7882 57.1545L22.9163 57.3274C23.2639 57.5716 23.6742 57.7111 24.0986 57.7293C24.5231 57.7474 24.9438 57.6435 25.311 57.4299C25.6579 57.2184 25.9433 56.9197 26.1388 56.5636C26.3343 56.2075 26.433 55.8063 26.4251 55.4001V30.6399C26.4244 30.1133 26.3154 29.5924 26.105 29.1096Z" fill="url(#paint12_linear_216_1793)"/>
<path d="M23.7805 29.0131C24.0488 29.1776 24.2696 29.4093 24.4207 29.6854C24.2922 29.2973 24.0316 28.9665 23.6844 28.7506C23.3978 28.5669 23.0644 28.4692 22.724 28.4692C22.3835 28.4692 22.0502 28.5669 21.7635 28.7506L8.34294 36.8503C7.53169 37.3531 6.86197 38.0544 6.39704 38.8879C5.9321 39.7214 5.68729 40.6597 5.68572 41.6141V46.8389H3.96973V47.1078H5.78176V41.8766C5.7857 40.9228 6.03226 39.9857 6.49823 39.1534C6.96421 38.3212 7.63428 37.6211 8.44539 37.1192L21.8916 29.0195C22.1746 28.8428 22.5014 28.7485 22.8351 28.7474C23.1688 28.7462 23.4962 28.8383 23.7805 29.0131Z" fill="#B1AEB1"/>
<path d="M24.4084 55.8929C24.3129 55.9464 24.2002 55.9602 24.0946 55.9313C24.0946 55.9313 25.2792 56.245 25.2792 55.4959V30.7805C25.2743 30.4213 25.1876 30.0679 25.0256 29.7473C24.8636 29.4266 24.6306 29.1471 24.3444 28.93C23.7681 28.5779 22.4235 28.2385 22.8333 28.7444C23.1679 28.7451 23.4958 28.8382 23.7809 29.0133C24.0488 29.1897 24.2682 29.4303 24.4192 29.7133C24.5702 29.9962 24.6479 30.3125 24.6453 30.6332V55.5023C24.6474 55.5832 24.6262 55.6631 24.5842 55.7323C24.5422 55.8016 24.4811 55.8573 24.4084 55.8929Z" fill="url(#paint13_linear_216_1793)"/>
<path d="M22.8007 57.1734C22.6911 57.0315 22.62 56.8639 22.5941 56.6866C22.5682 56.5092 22.5884 56.3282 22.6527 56.161C22.717 55.9937 22.8233 55.8458 22.9614 55.7316C23.0995 55.6173 23.2646 55.5405 23.4409 55.5086H23.4794L23.4281 55.4702C23.2518 55.5021 23.0866 55.5789 22.9486 55.6932C22.8105 55.8074 22.7042 55.9553 22.6399 56.1225C22.5755 56.2898 22.5554 56.4708 22.5813 56.6481C22.6072 56.8255 22.6783 56.9931 22.7878 57.135L22.9159 57.3079L22.8007 57.1734Z" fill="#B7B5B7"/>
<path d="M4.87938 46.8583V41.6271C4.88317 40.3668 5.20788 39.1282 5.8229 38.0282C6.43791 36.9281 7.32296 36.0028 8.3946 35.3394L21.8408 27.2397C21.9991 27.1451 22.1639 27.0616 22.3338 26.99C21.8372 27.0549 21.3609 27.2276 20.938 27.4958L7.49178 35.5892C6.4218 36.2543 5.53806 37.18 4.92328 38.2797C4.30849 39.3793 3.98276 40.617 3.97656 41.8768V47.1081H5.78219V46.8583H4.87938Z" fill="url(#paint14_linear_216_1793)"/>
<path d="M12.6841 51.7054L1.37646 58.23V48.8688L12.6841 42.3442V51.7054Z" fill="#A7AFFF"/>
<path d="M11.8777 51.0907L2.18359 56.6869V49.1506L11.8777 43.5544V51.0907Z" fill="url(#paint15_linear_216_1793)"/>
<path d="M6.77443 50.2968L2.64453 52.6787V49.4708L6.77443 47.0825V50.2968Z" fill="white"/>
<path d="M0 48.0686V57.4361L1.37663 58.2301V48.869L0 48.0686Z" fill="#231889"/>
<path d="M11.3076 41.5437L0 48.0683L1.37663 48.8687L12.6842 42.3441L11.3076 41.5437Z" fill="url(#paint16_linear_216_1793)"/>
<path d="M29.5945 73.6037H20.2141L15.3095 74.2889L3.78418 67.6362L11.5253 63.1733L29.5945 73.6037Z" fill="#231889"/>
<path d="M58.856 30.9342L54.0986 30.1787L54.1435 29.8649L58.792 30.6013L68.0379 25.3188V25.6838L58.856 30.9342Z" fill="url(#paint17_linear_216_1793)"/>
<defs>
<linearGradient id="paint0_linear_216_1793" x1="56.4971" y1="57.4083" x2="-2.35312" y2="89.8096" gradientUnits="userSpaceOnUse">
<stop stop-color="#E4E7FF"/>
<stop offset="1" stop-color="#2137FF"/>
</linearGradient>
<linearGradient id="paint1_linear_216_1793" x1="45.1918" y1="46.5833" x2="45.1918" y2="73.6037" gradientUnits="userSpaceOnUse">
<stop stop-color="#2137FF"/>
<stop offset="1" stop-color="#0047FF"/>
</linearGradient>
<linearGradient id="paint2_linear_216_1793" x1="56.4971" y1="19.4132" x2="-2.35311" y2="51.8144" gradientUnits="userSpaceOnUse">
<stop stop-color="#E4E7FF"/>
<stop offset="1" stop-color="#2137FF"/>
</linearGradient>
<linearGradient id="paint3_linear_216_1793" x1="37.4625" y1="1.56464e-06" x2="25.1904" y2="23.0909" gradientUnits="userSpaceOnUse">
<stop stop-color="#2137FF"/>
<stop offset="1" stop-color="#0047FF"/>
</linearGradient>
<linearGradient id="paint4_linear_216_1793" x1="59.7428" y1="35.0318" x2="9.19386" y2="50.2378" gradientUnits="userSpaceOnUse">
<stop stop-color="#E4E7FF"/>
<stop offset="1" stop-color="#2137FF"/>
</linearGradient>
<linearGradient id="paint5_linear_216_1793" x1="52.9639" y1="20.1844" x2="51.3491" y2="82.9982" gradientUnits="userSpaceOnUse">
<stop stop-color="#E4E7FF"/>
<stop offset="1" stop-color="#2137FF"/>
</linearGradient>
<linearGradient id="paint6_linear_216_1793" x1="32.1276" y1="30.3074" x2="57.7652" y2="45.2947" gradientUnits="userSpaceOnUse">
<stop stop-color="#2137FF"/>
<stop offset="1" stop-color="#0047FF"/>
</linearGradient>
<linearGradient id="paint7_linear_216_1793" x1="38.2699" y1="40.5302" x2="0.14799" y2="88.6388" gradientUnits="userSpaceOnUse">
<stop stop-color="#E4E7FF"/>
<stop offset="1" stop-color="#2137FF"/>
</linearGradient>
<linearGradient id="paint8_linear_216_1793" x1="44.89" y1="19.5386" x2="46.6678" y2="52.318" gradientUnits="userSpaceOnUse">
<stop stop-color="#2137FF"/>
<stop offset="1" stop-color="#E4E7FF"/>
</linearGradient>
<linearGradient id="paint9_linear_216_1793" x1="19.4841" y1="35.8901" x2="19.4841" y2="56.6229" gradientUnits="userSpaceOnUse">
<stop stop-color="#2137FF"/>
<stop offset="1" stop-color="#0047FF"/>
</linearGradient>
<linearGradient id="paint10_linear_216_1793" x1="23.6558" y1="41.1792" x2="23.6558" y2="57.9293" gradientUnits="userSpaceOnUse">
<stop stop-color="#2137FF"/>
<stop offset="1" stop-color="#6821FF"/>
</linearGradient>
<linearGradient id="paint11_linear_216_1793" x1="43.4826" y1="22.8035" x2="43.4826" y2="50.1742" gradientUnits="userSpaceOnUse">
<stop stop-color="#2137FF"/>
<stop offset="1" stop-color="#0047FF"/>
</linearGradient>
<linearGradient id="paint12_linear_216_1793" x1="25.7389" y1="41.7959" x2="21.1842" y2="41.9893" gradientUnits="userSpaceOnUse">
<stop stop-color="#E4E7FF"/>
<stop offset="1" stop-color="#2137FF"/>
</linearGradient>
<linearGradient id="paint13_linear_216_1793" x1="25.3519" y1="31.4875" x2="21.9968" y2="31.5845" gradientUnits="userSpaceOnUse">
<stop stop-color="#E4E7FF"/>
<stop offset="1" stop-color="#2137FF"/>
</linearGradient>
<linearGradient id="paint14_linear_216_1793" x1="19.0367" y1="35.9071" x2="-1.17364" y2="41.7684" gradientUnits="userSpaceOnUse">
<stop stop-color="#E4E7FF"/>
<stop offset="1" stop-color="#2137FF"/>
</linearGradient>
<linearGradient id="paint15_linear_216_1793" x1="7.03063" y1="43.5544" x2="7.03063" y2="56.6869" gradientUnits="userSpaceOnUse">
<stop stop-color="#2137FF"/>
<stop offset="1" stop-color="#0047FF"/>
</linearGradient>
<linearGradient id="paint16_linear_216_1793" x1="10.406" y1="44.7904" x2="-1.21349" y2="51.1855" gradientUnits="userSpaceOnUse">
<stop stop-color="#E4E7FF"/>
<stop offset="1" stop-color="#2137FF"/>
</linearGradient>
<linearGradient id="paint17_linear_216_1793" x1="66.3664" y1="22.445" x2="64.9131" y2="25.3516" gradientUnits="userSpaceOnUse">
<stop stop-color="#DEE1FF"/>
<stop offset="1" stop-color="#0047FF"/>
</linearGradient>
</defs>
</svg>

<svg width="76" height="80" fill="none" xmlns="http://www.w3.org/2000/svg"><path d="m38.334 10.534.039-.166a.524.524 0 0 0-.237-.48l-.192-.11c-.154-.089-.269 0-.237.206l.038.205-.038.166a.525.525 0 0 0 .237.48l.192.11c.154.089.269 0 .237-.206l-.038-.205Z" fill="#A2928D"/><path d="m38.238 10.56.039-.16a.525.525 0 0 0-.244-.487l-.185-.109c-.154-.09-.27 0-.237.212l.038.204-.038.16a.539.539 0 0 0 .237.487l.185.103c.16.096.276 0 .244-.205l-.039-.205Z" fill="#7E6861"/><path d="M38.06 12.321H38a.878.878 0 0 1-.339-.698l.032-1.178a.289.289 0 0 1 .128-.045.16.16 0 0 1 .128 0 .506.506 0 0 1 .23.365l.16 1.223a.268.268 0 0 1-.089.25.423.423 0 0 1-.192.083Z" fill="#BB9590"/><path d="M37.86 12.283a.75.75 0 0 1-.339-.64l.115-1.108c0-.128.11-.173.224-.103a.513.513 0 0 1 .231.365l.109 1.236c.019.256-.141.365-.34.25Z" fill="#907566"/><path d="m38.065 10.502-.083.052-.051.505h-.141l.07-.614.205-.115v.172Z" fill="#A2928D"/><path d="m38.066 10.33-.205.114-.07.615-.154-.077.07-.614.199-.116.16.077Z" fill="#8F7C76"/><path d="M49.969 40.968 3.784 67.636l18.07 10.424 46.184-26.662-18.07-10.43Z" fill="url(#a)"/><path d="M29.594 73.604 60.79 55.829l-3.97-9.246-24.286 14.023-2.939 12.998Z" fill="url(#b)"/><path d="m14.464 50.175-2.939 12.998 18.07 10.43 2.938-12.998-18.069-10.43Z" fill="#171552"/><path d="M68.038 53.338 21.854 80v-1.94l46.184-26.662v1.94Z" fill="#A7B0FF"/><path d="M3.784 67.636v1.933L21.854 80v-1.94L3.783 67.637Z" fill="#171552"/><path d="M49.969 2.972 3.784 29.634l18.07 10.43 46.184-26.661-18.07-10.43Z" fill="url(#c)"/><path d="M48.189 15.068c0 13.504-9.54 29.965-21.316 36.759-3.912 2.26 7.197 12.806 4.047 12.486-1.754-.167-18.114-10.303-19.503-11.18-3.63-2.292-5.853-6.934-5.853-13.446 0-13.504 9.54-29.966 21.31-36.76 6.178-3.566 11.749-3.764 15.642-1.19.224.153 18.107 9.956 18.773 10.942 1.71 2.523-13.1-1.933-13.1 2.389Z" fill="url(#d)"/><path d="M68.038 35.538 21.854 62.2V40.065l46.184-26.662v22.135Z" fill="url(#e)"/><path d="M59.92 46.555c8.376-14.327 8.462-29.861.191-34.696-8.27-4.834-21.764 2.86-30.14 17.188-8.375 14.327-8.46 29.86-.19 34.695 8.27 4.835 21.764-2.86 30.14-17.187Z" fill="#8F8B8C"/><path d="M59.92 46.555c8.376-14.327 8.462-29.861.191-34.696-8.27-4.834-21.764 2.86-30.14 17.188-8.375 14.327-8.46 29.86-.19 34.695 8.27 4.835 21.764-2.86 30.14-17.187Z" fill="url(#f)"/><path d="M57.765 45.295c7.17-12.264 7.242-25.56.162-29.699-7.08-4.138-18.63 2.448-25.8 14.711-7.168 12.264-7.24 25.56-.161 29.699 7.08 4.138 18.63-2.448 25.8-14.711Z" fill="url(#g)"/><path d="M56.859 44.765c6.66-11.394 6.726-23.748.147-27.594-6.579-3.845-17.311 2.273-23.972 13.666-6.66 11.393-6.726 23.747-.147 27.593s17.311-2.272 23.972-13.665Z" fill="url(#h)"/><path d="M44.942 14.235c11.64-6.716 16.57-1.383 19.01 1.524-3.515-5.916-10.705-7.21-19.01-2.414-8.304 4.796-15.437 14.317-18.965 24.255 2.426-5.68 7.337-16.642 18.965-23.365Z" fill="#fff"/><path d="M54.802 43.563c5.513-9.43 5.57-19.655.126-22.837-5.443-3.182-14.325 1.883-19.838 11.313-5.513 9.43-5.569 19.655-.126 22.837 5.444 3.182 14.325-1.883 19.838-11.313Z" fill="url(#i)"/><path d="M3.784 29.634v22.142L21.854 62.2V40.065l-18.07-10.43Z" fill="#2137FF"/><path d="M7.87 27.278 25.976 37.6l-4.124 2.465-18.069-10.43 4.085-2.357Z" fill="#A7AFFF"/><path d="M23.633 55.822V39.085l-4.405-2.644a6.268 6.268 0 0 0-2.132-.55c-.595.093-1.183.225-1.761.396l1.012.583a2.868 2.868 0 0 1 2.452.32c1.146.8 3.842 2.42 3.842 2.42v17.013l.992-.8Z" fill="url(#j)"/><path d="M14.618 57.93h-.32V47.8l7.555 4.117 8.964-5.103 2.094-5.635.103.634-1.934 5.218-9.22 5.25-7.242-3.937v9.585Z" fill="url(#k)"/><path d="M54.124 30.352c0 6.748-4.764 14.97-10.641 18.363-5.385 3.106-9.835 1.089-10.546-4.482a12.81 12.81 0 0 1-.096-1.607c0-6.749 4.764-14.964 10.642-18.357.73-.433 1.505-.785 2.311-1.05 4.764-1.544 8.33 1.3 8.33 7.133Z" fill="url(#l)"/><path d="M45.864 24.62c0 6.852-4.84 15.201-10.814 18.653-.672.392-1.38.72-2.113.98a12.81 12.81 0 0 1-.096-1.608c0-6.749 4.764-14.964 10.642-18.357.73-.433 1.505-.785 2.311-1.05.047.46.07.92.07 1.383Z" fill="#171552"/><path d="M24.203 57.737a2.279 2.279 0 0 1-1.28-.403l-.129-.173a1.045 1.045 0 0 1 .64-1.665l.532.371a.442.442 0 0 0 .461 0 .423.423 0 0 0 .237-.39V30.64a1.922 1.922 0 0 0-.864-1.62 1.793 1.793 0 0 0-1.921 0l-13.446 8.1a5.622 5.622 0 0 0-2.651 4.757v5.231H3.97v-5.231a7.447 7.447 0 0 1 3.515-6.288l13.446-8.093a3.535 3.535 0 0 1 3.733 0 3.688 3.688 0 0 1 1.735 3.201v24.748a2.325 2.325 0 0 1-1.114 2.03 2.272 2.272 0 0 1-1.082.262Z" fill="#ECECEC"/><path d="M26.105 29.11c.145.411.22.844.224 1.28v24.741a2.331 2.331 0 0 1-1.12 2.03c-.34.196-.723.3-1.115.3a2.196 2.196 0 0 1-1.28-.402l-.135-.173a.843.843 0 0 1-.076-.128.98.98 0 0 0 .185.396l.128.173a2.222 2.222 0 0 0 2.395.103 2.325 2.325 0 0 0 1.114-2.03V30.64c0-.527-.11-1.048-.32-1.53Z" fill="url(#m)"/><path d="M23.78 29.013c.269.165.49.396.64.672a1.748 1.748 0 0 0-.736-.934 1.78 1.78 0 0 0-1.92 0l-13.421 8.1a5.616 5.616 0 0 0-2.657 4.763v5.225H3.97v.269h1.812v-5.231a5.622 5.622 0 0 1 2.663-4.758l13.447-8.1a1.793 1.793 0 0 1 1.889-.006Z" fill="#B1AEB1"/><path d="M24.408 55.893a.417.417 0 0 1-.313.038s1.184.314 1.184-.435V30.78a2.362 2.362 0 0 0-.935-1.85c-.576-.352-1.92-.692-1.51-.186.334.001.662.094.947.27a1.92 1.92 0 0 1 .864 1.62v24.868a.422.422 0 0 1-.237.39Z" fill="url(#n)"/><path d="M22.8 57.173a1.043 1.043 0 0 1 .64-1.664h.04l-.052-.039a1.043 1.043 0 0 0-.64 1.665l.128.173-.115-.135Z" fill="#B7B5B7"/><path d="M4.88 46.858v-5.23a7.42 7.42 0 0 1 3.515-6.289l13.446-8.1c.158-.094.323-.177.493-.249a3.438 3.438 0 0 0-1.396.506L7.492 35.589a7.446 7.446 0 0 0-3.515 6.288v5.231h1.805v-.25H4.88Z" fill="url(#o)"/><path d="M12.684 51.705 1.376 58.23v-9.361l11.308-6.525v9.361Z" fill="#A7AFFF"/><path d="m11.878 51.09-9.694 5.597V49.15l9.694-5.597v7.537Z" fill="url(#p)"/><path d="m6.774 50.297-4.13 2.382V49.47l4.13-2.388v3.214Z" fill="#fff"/><path d="M0 48.069v9.367l1.377.794v-9.36L0 48.069Z" fill="#231889"/><path d="M11.308 41.544 0 48.068l1.377.8 11.307-6.524-1.376-.8Z" fill="url(#q)"/><path d="M29.595 73.604h-9.38l-4.905.685-11.526-6.653 7.741-4.463 18.07 10.43Z" fill="#231889"/><path d="m58.856 30.934-4.757-.755.045-.314 4.648.736 9.246-5.282v.365l-9.182 5.25Z" fill="url(#r)"/><defs><linearGradient id="a" x1="56.497" y1="57.408" x2="-2.353" y2="89.81" gradientUnits="userSpaceOnUse"><stop stop-color="#E4E7FF"/><stop offset="1" stop-color="#2137FF"/></linearGradient><linearGradient id="b" x1="45.192" y1="46.583" x2="45.192" y2="73.604" gradientUnits="userSpaceOnUse"><stop stop-color="#2137FF"/><stop offset="1" stop-color="#0047FF"/></linearGradient><linearGradient id="c" x1="56.497" y1="19.413" x2="-2.353" y2="51.814" gradientUnits="userSpaceOnUse"><stop stop-color="#E4E7FF"/><stop offset="1" stop-color="#2137FF"/></linearGradient><linearGradient id="d" x1="37.462" y1="0" x2="25.19" y2="23.091" gradientUnits="userSpaceOnUse"><stop stop-color="#2137FF"/><stop offset="1" stop-color="#0047FF"/></linearGradient><linearGradient id="e" x1="59.743" y1="35.032" x2="9.194" y2="50.238" gradientUnits="userSpaceOnUse"><stop stop-color="#E4E7FF"/><stop offset="1" stop-color="#2137FF"/></linearGradient><linearGradient id="f" x1="52.964" y1="20.184" x2="51.349" y2="82.998" gradientUnits="userSpaceOnUse"><stop stop-color="#E4E7FF"/><stop offset="1" stop-color="#2137FF"/></linearGradient><linearGradient id="g" x1="32.128" y1="30.307" x2="57.765" y2="45.295" gradientUnits="userSpaceOnUse"><stop stop-color="#2137FF"/><stop offset="1" stop-color="#0047FF"/></linearGradient><linearGradient id="h" x1="38.27" y1="40.53" x2=".148" y2="88.639" gradientUnits="userSpaceOnUse"><stop stop-color="#E4E7FF"/><stop offset="1" stop-color="#2137FF"/></linearGradient><linearGradient id="i" x1="44.89" y1="19.539" x2="46.668" y2="52.318" gradientUnits="userSpaceOnUse"><stop stop-color="#2137FF"/><stop offset="1" stop-color="#E4E7FF"/></linearGradient><linearGradient id="j" x1="19.484" y1="35.89" x2="19.484" y2="56.623" gradientUnits="userSpaceOnUse"><stop stop-color="#2137FF"/><stop offset="1" stop-color="#0047FF"/></linearGradient><linearGradient id="k" x1="23.656" y1="41.179" x2="23.656" y2="57.929" gradientUnits="userSpaceOnUse"><stop stop-color="#2137FF"/><stop offset="1" stop-color="#6821FF"/></linearGradient><linearGradient id="l" x1="43.483" y1="22.803" x2="43.483" y2="50.174" gradientUnits="userSpaceOnUse"><stop stop-color="#2137FF"/><stop offset="1" stop-color="#0047FF"/></linearGradient><linearGradient id="m" x1="25.739" y1="41.796" x2="21.184" y2="41.989" gradientUnits="userSpaceOnUse"><stop stop-color="#E4E7FF"/><stop offset="1" stop-color="#2137FF"/></linearGradient><linearGradient id="n" x1="25.352" y1="31.488" x2="21.997" y2="31.584" gradientUnits="userSpaceOnUse"><stop stop-color="#E4E7FF"/><stop offset="1" stop-color="#2137FF"/></linearGradient><linearGradient id="o" x1="19.037" y1="35.907" x2="-1.174" y2="41.768" gradientUnits="userSpaceOnUse"><stop stop-color="#E4E7FF"/><stop offset="1" stop-color="#2137FF"/></linearGradient><linearGradient id="p" x1="7.031" y1="43.554" x2="7.031" y2="56.687" gradientUnits="userSpaceOnUse"><stop stop-color="#2137FF"/><stop offset="1" stop-color="#0047FF"/></linearGradient><linearGradient id="q" x1="10.406" y1="44.79" x2="-1.213" y2="51.185" gradientUnits="userSpaceOnUse"><stop stop-color="#E4E7FF"/><stop offset="1" stop-color="#2137FF"/></linearGradient><linearGradient id="r" x1="66.366" y1="22.445" x2="64.913" y2="25.352" gradientUnits="userSpaceOnUse"><stop stop-color="#DEE1FF"/><stop offset="1" stop-color="#0047FF"/></linearGradient></defs></svg>
